public/images/roadmap-desktop.svg

<svg fill="none" height="875" viewBox="0 0 317 875" width="317" xmlns="http://www.w3.org/2000/svg"><g stroke="#fa7d39" stroke-width="5"><path d="m176.5 842.941-29 29" stroke-linecap="round"/><path d="m147.5 842.941c5.976 7.031 21.823 22.263 29 29" stroke-linecap="round"/><path d="m160.838 857.662c27.029-134.752-81.7322-120.752-130.6431-175.752-33.24696-37.386 135.3061-101.84 138.3061-173.34s-40.001-175.5-117.0003-137-23.1859 130 46.4999 137c69.6854 7 186.0004-114 201.0004-240.5s-138.163-150.287-138.163-229.4079" stroke-dasharray="10 10"/><circle cx="157.126" cy="18.9102" r="16"/><g fill="#000"><circle cx="302.25" cy="246.512" r="12"/><circle cx="242.25" cy="142.512" r="12"/><circle cx="15.25" cy="435.512" r="12"/><circle cx="243.25" cy="405.512" r="12"/><circle cx="45.25" cy="695.512" r="12"/></g></g></svg>

<svg width="317" height="875" viewBox="0 0 317 875" fill="none" xmlns="http://www.w3.org/2000/svg">
<path d="M176.5 842.941L147.5 871.941" stroke="#FA7D39" stroke-width="5" stroke-linecap="round"/>
<path d="M147.5 842.941C153.476 849.972 169.323 865.204 176.5 871.941" stroke="#FA7D39" stroke-width="5" stroke-linecap="round"/>
<path d="M160.838 857.662C187.867 722.91 79.1058 736.91 30.1949 681.91C-3.05206 644.524 165.501 580.07 168.501 508.57C171.501 437.07 128.5 333.07 51.5007 371.57C-25.4986 410.07 28.3148 501.57 98.0006 508.57C167.686 515.57 284.001 394.57 299.001 268.07C314.001 141.57 160.838 117.783 160.838 38.6621" stroke="#FA7D39" stroke-width="5" stroke-dasharray="10 10"/>
<circle cx="157.126" cy="18.9102" r="16" stroke="#FA7D39" stroke-width="5"/>
<circle cx="302.25" cy="246.512" r="12" fill="black" stroke="#FA7D39" stroke-width="5"/>
<circle cx="242.25" cy="142.512" r="12" fill="black" stroke="#FA7D39" stroke-width="5"/>
<circle cx="15.25" cy="435.512" r="12" fill="black" stroke="#FA7D39" stroke-width="5"/>
<circle cx="243.25" cy="405.512" r="12" fill="black" stroke="#FA7D39" stroke-width="5"/>
<circle cx="45.25" cy="695.512" r="12" fill="black" stroke="#FA7D39" stroke-width="5"/>
</svg>
